symbols/web/table/materialsymbolsoutlined/table_wght700gradN25_24px.svg

<svg xmlns="http://www.w3.org/2000/svg" height="24" width="24"><path d="M2.375 21.625V2.375h19.25v19.25ZM5.4 8.35h13.2V5.4H5.4Zm5.025 5.15h3.15v-3.275h-3.15Zm0 5.1h3.15v-3.225h-3.15ZM5.4 13.5h3.15v-3.275H5.4Zm10.05 0h3.15v-3.275h-3.15ZM5.4 18.6h3.15v-3.225H5.4Zm10.05 0h3.15v-3.225h-3.15Z"/></svg>

<svg xmlns="http://www.w3.org/2000/svg" height="24" width="24"><path d="M2.375 21.625V2.375H21.625V21.625ZM5.4 8.35H18.6V5.4H5.4ZM10.425 13.5H13.575V10.225H10.425ZM10.425 18.6H13.575V15.375H10.425ZM5.4 13.5H8.55V10.225H5.4ZM15.45 13.5H18.6V10.225H15.45ZM5.4 18.6H8.55V15.375H5.4ZM15.45 18.6H18.6V15.375H15.45Z"/></svg>
